X: 3364
T: DURHAM REGATTA
%R: hornpipe, reel
B: James Kerr "Merry Melodies" v.3 p.40 #364
Z: 2016 John Chambers <jc:trillian.mit.edu>
M: C
L: 1/8
K: Bb
(bg) |\
fdcd BGFE | D2B,2B,2 (BA) |\
GABc de=ef | gf=ef B2(bg) |\
fdcd BGFE | D2B,2B,2 (BA) |\
GBEg fece | d2B2B2 :|
|: (FE) |\
DFBc (3(ded) (3(cdc) | BcAB G2 (gb) |\
bd=eg fAcd | de=ef c2 (fe) |\
dbca BgAf | GeFd EcDB |\
GABc de=eg | f_ecd B2 :|

%%sep 1 1 500
%%sep 1 1 500

